!!!COM: Copland, Aaron
!!!OTL: Symphony No. 1
!!!example: 701
!!!work: Cop-1
**kern	**dynam	**kern	**kern	**kern	**kern	**kern
*grp:A	*grp:A	*grp:A	*grp:B	*grp:B	*grp:A	*grp:A
*part5	*part5	*part4	*part3	*part3	*part2	*part1
*staff6	*S	*staff5	*staff4	*staff3	*staff2	*staff1
*I"Violin I	*	*I"Violin I	*I"Piano	*	*I"Oboe	*I"Oboe
*I'Vln. I	*	*I'Vln. I	*I'Pno.	*	*I'Ob.	*I'Ob.
*clefG2	*	*clefG2	*clefF4	*clefG2	*clefG2	*clefG2
*k[]	*	*k[]	*k[]	*k[]	*k[]	*k[]
*C:	*	*C:	*C:	*C:	*C:	*C:
*M3/4	*	*M3/4	*M3/4	*M3/4	*M3/4	*M3/4
*MM160	*	*MM160	*MM160	*MM160	*MM160	*MM160
=1	=1	=1	=1	=1	=1	=1
4r	p	8aL	8r	8a^L	2.r	2.r
.	.	8cJ	8EE^	8gJ	.	.
4r	.	4r	8FF	8r	.	.
.	.	.	8r	8a	.	.
8g	p	8c	8EE^L	8g^	.	.
8r	.	8r	8FFJ	8r	.	.
=2	=2	=2	=2	=2	=2	=2
8aL	.	8a	8r	8a^L	2.r	2.r
8cJ	.	8r	8EE^	8gJ	.	.
4r	.	4r	8FF	8r	.	.
.	.	.	8r	8a	.	.
8c	.	8g	8EE^L	8g^	.	.
8r	.	8r	8FFJ	8r	.	.
=3	=3	=3	=3	=3	=3	=3
8a	mf	8aL	8r	8a^L	2.r	8dd^L
8r	.	8cJ	8EE^	8gJ	.	8ccJ
4r	.	4r	8FF	8r	.	8r
.	.	.	8r	8a	.	8dd^
8g	.	8c	8EE^L	8g^	.	8cc
8r	.	8r	8FFJ	8r	.	8r
=4	=4	=4	=4	=4	=4	=4
8aL	.	8a	8r	8a^L	2.r	8dd^L
8cJ	.	8r	8EE^	8gJ	.	8ccJ
4r	.	4r	8FF	8r	.	8r
.	.	.	8r	8a	.	4gg
8c	.	8g	8EE^L	8g^	.	.
8r	.	8r	8FFJ	8r	.	[8gg
=5	=5	=5	=5	=5	=5	=5
8a	.	8aL	8r	8a^L	2.r	16%3ggL]
8r	.	8cJ	8EE^	8gJ	.	.
.	.	.	.	.	.	16%3gg
4r	.	4r	8FF	8r	.	.
.	.	.	8r	8a	.	16%3gg
8g	.	8c	8EE^L	8g^	.	.
.	.	.	.	.	.	[16%3ggJ
8r	.	8r	8FFJ	8r	.	.
=6	=6	=6	=6	=6	=6	=6
8aL	.	8a	8r	8a^L	2.r	8ggL]
8cJ	.	8r	8EE^	8gJ	.	8ggJ
4r	.	4r	8FF	8r	.	8ggL
.	.	.	8r	8a	.	8ggJ
8c	.	8g	8EE^L	8g^	.	8ggL
8r	.	8r	8FFJ	8r	.	8ggJ
=7	=7	=7	=7	=7	=7	=7
!!linebreak:original
8a	.	8aL	8r	8a^L	4r	8ggL
8r	.	8cJ	8EE^	8gJ	.	8ggJ
4r	.	4r	8FF	8r	4r	8ggL
.	.	.	8r	8a	.	8ggJ
8g	.	8c	8EE^L	8g^	8r	8gg
8r	mf	8r	8FFJ	8r	8gg'	8r
=8	=8	=8	=8	=8	=8	=8
8aL	.	8a	8r	8a^L	8ff#X^L	2.r
8cJ	.	8r	8EE^	8gJ	8ee'J	.
4r	.	4r	8FF	8r	8dd'L	.
.	.	.	8r	8a	[8cc'^J	.
8c	.	8g	8EE^L	8g^	8ccL]	.
8r	.	8r	8FFJ	8r	[8dd^J	.
=9	=9	=9	=9	=9	=9	=9
8a	.	8aL	8r	8a^L	8ddL]	4r
8r	.	8cJ	8EE^	8gJ	8a'J	.
4r	.	4r	8FF	8r	4cc^	4r
.	.	.	8r	8a	.	.
8g	.	8c	8EE^L	8g^	8dd^L	8dd^L
8r	.	8r	8FFJ	8r	8ccJ	8ccJ
=10	=10	=10	=10	=10	=10	=10
8aL	.	8a	8r	8a^L	2.r	8r
8cJ	.	8r	8EE^	8gJ	.	8dd^
4r	.	4r	8FF	8r	.	8cc
.	.	.	8r	8a	.	8r
8c	.	8g	8EE^L	8g^	.	8dd^L
8r	.	8r	8FFJ	8r	.	8ccJ
=11	=11	=11	=11	=11	=11	=11
8a	.	8aL	8r	8a^L	2.r	8r
8r	.	8cJ	8EE^	8gJ	.	4gg~
4r	.	4r	8FF	8r	.	.
.	.	.	8r	8a	.	4gg~
8g	.	8c	8EE^L	8g^	.	.
8r	.	8r	8FFJ	8r	.	[8gg~
=12	=12	=12	=12	=12	=12	=12
8aL	.	8a	8r	8a^L	2.r	16%3ggL]
8cJ	.	8r	8EE^	8gJ	.	.
.	.	.	.	.	.	16%3gg~
4r	.	4r	8FF	8r	.	.
.	.	.	8r	8a	.	16%3gg~
8c	.	8g	8EE^L	8g^	.	.
.	.	.	.	.	.	[16%3gg~J
8r	.	8r	8FFJ	8r	.	.
=13	=13	=13	=13	=13	=13	=13
!!pagebreak:original
8a	.	8aL	8r	8aL	2.r	8ggL]
8r	.	8cJ	8EE	8gJ	.	8ggJ
4r	.	4r	8FF	8r	.	8ggL
.	.	.	8r	8a	.	8ggJ
8g	.	8c	8EEL	8g	.	8ggL
8r	.	8r	8FFJ	8r	.	8ggJ
=14	=14	=14	=14	=14	=14	=14
8aL	.	8a	8r	8aL	4r	8ggL
8cJ	.	8r	8EE	8gJ	.	8ggJ
4r	.	4r	8FF	8r	4r	8ggL
.	.	.	8r	8a	.	8ggJ
8c	.	8g	8EEL	8g	8aa^L	4r
8r	.	8r	8FFJ	8r	8gg'J	.
=15	=15	=15	=15	=15	=15	=15
8a	.	8aL	8r	8aL	8ff#X'	2.r
8r	.	8cJ	8EE	8gJ	4ee~	.
4r	.	4r	8FF	8r	.	.
.	.	.	8r	8a	4gg~	.
8g	.	8c	8EEL	8g	.	.
8r	.	8r	8FFJ	8r	8gg'	.
=16	=16	=16	=16	=16	=16	=16
8aL	.	8a	8r	8aL	8ff#X^L	4r
8cJ	.	8r	8EE	8gJ	8ee'J	.
4r	.	4r	8FF	8r	8dd'L	4r
.	.	.	8r	8a	[8ee^J	.
8c	.	8g	8EEL	8g	8eeL]	8r
8r	.	8r	8FFJ	8r	[8gg^J	[8gg^
=17	=17	=17	=17	=17	=17	=17
8a	.	8aL	8r	8aL	8ggL]	8ggL]
8r	.	8cJ	8EE	8gJ	8gg'J	8gg'J
4r	.	4r	8FF	8r	8aa^L	8aa^L
.	.	.	8r	8a	8gg'J	8gg'J
8g	.	8c	8EEL	8g	8ff#X'L	8ff#X'L
8r	.	8r	8FFJ	8r	8gg~J	8gg~J
=18	=18	=18	=18	=18	=18	=18
8aL	.	8a	8r	8aL	8ff#X'L	8ff#X'L
8cJ	.	8r	8EE	8gJ	8ee'J	8ee'J
4r	.	4r	8FF	8r	8aa^L	8aa^L
.	.	.	8r	8a	8gg'J	8gg'J
8c	.	8g	8EEL	8g	8ff#'L	8ff#'L
8r	.	8r	8FFJ	8r	8gg^J	8gg^J
==	==	==	==	==	==	==
*-	*-	*-	*-	*-	*-	*-
!!!CDT: 1900/11/14-1990/12/02
!!!CBL: Brooklyn, United States
!!!CDL: North Tarrytown, United States
!!!CNT: American
!!!AGN: Orchestral; Symphonic
!!!MCN: Reiner, Fritz
!!!MDT: 1927/11/04
!!!MGN: Philadelphia Orchestra
!!!MLC: Philadelphia, Pennsylvania, United States of America
!!!MPD: 1927
!!!MPN:
!!!ODT: 1924 (rev. 1928)
!!!PDT: 1931
!!!excerpt-start-measure: 1
!!!excerpt-end-measure: 18
!!!excerpt-start-time: 0:00
!!!excerpt-end-time: 0:23
!!!system-decoration: [(s1,s2)]{(s3,s4)}[(s5,s6)]
!!!ONB: Converted from MusicXML on 2019/06/04 and edited by Craig Stuart Sapp
!!!EEV: 2019/10/08
